svg/laravel.svg

<svg viewBox="0 0 20 20" xmlns="http://www.w3.org/2000/svg">
<rect width="100%" height="100%" fill="#FF2D20"/>
<path fill-rule="evenodd" clip-rule="evenodd" d="M17.9977 5.75125C18.0008 5.77237 18.0008 5.79384 17.9977 5.81497V9.13041C17.9977 9.17283 17.9864 9.21449 17.9651 9.25113C17.9437 9.28778 17.913 9.31808 17.876 9.33895L15.1013 10.9455V14.118C15.1017 14.1603 15.0908 14.2019 15.0697 14.2386C15.0487 14.2753 15.0182 14.3056 14.9815 14.3266L9.17131 17.671C9.15804 17.6787 9.14374 17.6846 9.12883 17.6884H9.11339C9.07276 17.6981 9.03043 17.6981 8.9898 17.6884H8.9705C8.95664 17.6834 8.9431 17.6776 8.92995 17.671L3.12165 14.3266C3.08472 14.3057 3.05399 14.2754 3.03262 14.2388C3.01124 14.2021 2.99999 14.1605 3 14.118V4.1698C3.00038 4.14822 3.00363 4.1268 3.00965 4.10608C3.00998 4.09964 3.00998 4.0932 3.00965 4.08677C3.00965 4.07325 3.01931 4.06167 3.0251 4.05008L3.04248 4.02691C3.05044 4.01458 3.0602 4.00351 3.07145 3.99408L3.09462 3.97477L3.12165 3.95546L6.01807 2.28326C6.05457 2.26149 6.09627 2.25 6.13876 2.25C6.18125 2.25 6.22295 2.26149 6.25944 2.28326L9.15587 3.95546L9.1829 3.97477L9.20607 3.99408C9.21362 4.00272 9.22071 4.01174 9.22731 4.02112C9.23355 4.02805 9.23876 4.03586 9.24276 4.04429C9.2497 4.05594 9.25552 4.06822 9.26014 4.08097V4.10222C9.2631 4.12271 9.2631 4.14352 9.26014 4.16401V10.3836L11.6815 8.98945V5.81304C11.6786 5.79255 11.6786 5.77174 11.6815 5.75125V5.73001C11.6865 5.71742 11.6923 5.70516 11.6989 5.69332C11.7029 5.68548 11.7082 5.67831 11.7144 5.67208C11.7144 5.66242 11.7279 5.65084 11.7356 5.64311L11.7588 5.62573L11.7858 5.60449L14.6822 3.93229C14.7191 3.91148 14.7606 3.90054 14.8029 3.90054C14.8452 3.90054 14.8868 3.91148 14.9236 3.93229L17.82 5.60449L17.8471 5.62573C17.8552 5.6309 17.863 5.63671 17.8702 5.64311C17.8702 5.64311 17.8838 5.66242 17.8915 5.67208L17.9089 5.69332C17.9089 5.7049 17.9089 5.71842 17.9243 5.73001C17.9398 5.74159 17.9958 5.74352 17.9977 5.75125V5.75125ZM17.5227 8.98945V6.23205L16.507 6.81134L15.1013 7.62041V10.3836L17.5227 8.98945V8.98945ZM14.6262 13.9771V11.2178L13.2379 12.0075L9.29296 14.259V17.0434L14.6262 13.9771ZM3.48467 4.58881V13.9771L8.8083 17.0434V14.259L6.02773 12.6834L6.0007 12.664C6.0007 12.664 5.98525 12.6525 5.97945 12.6447C5.97242 12.6368 5.96596 12.6285 5.96014 12.6196C5.95374 12.6124 5.94793 12.6046 5.94277 12.5965L5.93118 12.5675C5.92649 12.5582 5.92262 12.5485 5.9196 12.5385C5.91867 12.527 5.91867 12.5153 5.9196 12.5038V5.98296L4.50035 5.17389L3.48467 4.59461V4.58881ZM6.14745 2.77758L3.72797 4.1698L6.14745 5.56394L8.57272 4.1698L6.14745 2.77758ZM7.40643 11.4669L8.81023 10.6578V4.58881L7.79262 5.1681L6.38882 5.98296V12.0558L7.40643 11.4669ZM14.8599 4.41696L12.4346 5.81497L14.8541 7.20718L17.2736 5.81304L14.8599 4.41696ZM14.6185 7.62234L13.207 6.81713L12.1894 6.23785V8.98945L13.5932 9.79852L14.6108 10.3778L14.6185 7.62234ZM9.05159 13.8419L12.6007 11.8144L14.3656 10.8007L11.9557 9.40074L9.17324 11.0034L6.64177 12.4729L9.05159 13.8419Z" fill="white"/>
</svg>

<svg xmlns="http://www.w3.org/2000/svg" viewBox="0 0 20 20">
  <rect width="100%" height="100%" fill="#FF2D20"/>
  <path fill="#fff" fill-rule="evenodd" d="M18 5.75v3.38a.24.24 0 0 1-.12.2l-2.78 1.62v3.17a.24.24 0 0 1-.12.2l-5.8 3.35a.17.17 0 0 1-.05.02H9.1a.27.27 0 0 1-.12 0h-.02a.37.37 0 0 1-.04-.02l-5.8-3.34a.24.24 0 0 1-.13-.21V4.17l.01-.06v-.02c0-.02 0-.03.02-.04l.01-.02.03-.04.02-.02.03-.01 2.9-1.68a.24.24 0 0 1 .24 0l2.9 1.68.02.01.03.02a.33.33 0 0 1 .05.1v6.29l2.42-1.4V5.74l.02-.04.01-.02.03-.03.02-.01.03-.03 2.9-1.67a.25.25 0 0 1 .23 0l2.9 1.67.03.03.02.01.02.03.02.02.01.04.08.02ZM17.52 9V6.23l-1.01.58-1.4.81v2.76l2.41-1.4Zm-2.9 4.99v-2.76l-1.38.79-3.95 2.25v2.78l5.34-3.06ZM3.49 4.58v9.4l5.33 3.06v-2.78l-2.78-1.58-.03-.02-.02-.02-.02-.02-.02-.02v-.03l-.02-.03V5.98l-1.42-.8-1.02-.59Zm2.67-1.8L3.73 4.17l2.42 1.4 2.42-1.4-2.42-1.4Zm1.26 8.69 1.4-.81V4.59l-1.02.58-1.4.81v6.08l1.02-.6Zm7.45-7.05-2.43 1.4 2.42 1.39 2.42-1.4-2.41-1.4Zm-.24 3.2-1.41-.8-1.02-.58v2.75l1.4.8 1.02.59V7.62Zm-5.57 6.22 3.55-2.03 1.77-1-2.41-1.4L9.17 11l-2.53 1.46 2.41 1.37Z" clip-rule="evenodd"/>
</svg>
